packages/foundations/assets/icons/functional/images/business & payment/shopping_basket_14.svg

<svg width="14" height="14" viewBox="0 0 14 14" fill="none" xmlns="http://www.w3.org/2000/svg">
<g clip-path="url(#clip0_184_119)">
<path fill-rule="evenodd" clip-rule="evenodd" d="M6.97777 2.09998C8.63677 2.09998 9.79977 3.32098 9.79977 4.89998H11.8948C12.3308 4.89998 12.6738 5.30098 12.5868 5.73998L11.4948 11.33C11.4601 11.49 11.3722 11.6335 11.2454 11.737C11.1186 11.8406 10.9605 11.898 10.7968 11.9H3.20277C3.04153 11.8975 2.88611 11.8394 2.76276 11.7355C2.63941 11.6317 2.55569 11.4884 2.52577 11.33L1.41277 5.73998C1.39284 5.63787 1.39577 5.53262 1.42132 5.43178C1.44688 5.33094 1.49444 5.237 1.56058 5.15671C1.62673 5.07642 1.70982 5.01176 1.80391 4.96737C1.89799 4.92298 2.00074 4.89997 2.10477 4.89998H4.19977C4.19977 3.34298 5.34077 2.09998 6.97777 2.09998ZM11.0378 6.29998H2.96177L3.79177 10.5H10.2288L11.0358 6.29998H11.0378ZM6.99977 3.49998C6.12677 3.49998 5.60677 4.06698 5.60677 4.89998H8.39977C8.39977 4.08898 7.85077 3.49998 6.99977 3.49998Z" fill="#1A1C1F"/>
</g>
<defs>
<clipPath id="clip0_184_119">
<rect width="14" height="14" fill="white"/>
</clipPath>
</defs>
</svg>

<svg xmlns="http://www.w3.org/2000/svg" width="14" height="14" fill="none"><g clip-path="url(#a)"><path fill="#1A1C1F" fill-rule="evenodd" d="M6.978 2.1C8.637 2.1 9.8 3.321 9.8 4.9h2.095c.436 0 .779.401.692.84l-1.092 5.59a.72.72 0 0 1-.698.57H3.203a.7.7 0 0 1-.677-.57L1.413 5.74a.705.705 0 0 1 .692-.84H4.2c0-1.557 1.14-2.8 2.778-2.8m4.06 4.2H2.962l.83 4.2h6.437l.807-4.2zM7 3.5c-.873 0-1.393.567-1.393 1.4H8.4c0-.811-.55-1.4-1.4-1.4" clip-rule="evenodd"/></g><defs><clipPath id="a"><path fill="#fff" d="M0 0h14v14H0z"/></clipPath></defs></svg>
